figures-source/5.19.svg

<?xml version="1.0" encoding="utf-8"?>
<svg xmlns="http://www.w3.org/2000/svg" xmlns:xlink="http://www.w3.org/1999/xlink">
	<defs>
		<marker id="Arrow1Lend" orient="auto" refX="0.0" refY="0.0" style="overflow:visible;">
			
              
			<path d="M -10,0.0 L -10.0,-2.0 L 0.0,0.0 L -10.0,2.0 z " id="path3666" style="fill-rule:evenodd;stroke:#000000;stroke-width:1.0px;marker-start:none;"/>
			
            
		</marker>
	</defs>
	<g style="stroke:#000000;fill:#fff">
		<rect height="36.0" id="1342" rx="10.0026796097" ry="18.0" style="stroke:#616161;stroke-width:3.000000px;fill:#d3f5d6" width="42.394" x="271.394" y="253.48"/>
		<text id="1342_text" style="fill:#000000;stroke:#000000;stroke-width:0px;font-family: Courier New;font-size:12px" x="271.394" y="253.48">
			<tspan fill="#000000" font-family="Courier;" font-size="12.0px" id="1342_line1" stroke="#000000" text-align="center" text-anchor="middle" x="292.591" y="277.48">
				C3
			</tspan>
		</text>
		<rect height="36.0" id="1343" rx="10.0026796097" ry="18.0" style="stroke:#616161;stroke-width:3.000000px;fill:#d3f5d6" width="42.394" x="202.0" y="192.24"/>
		<text id="1343_text" style="fill:#000000;stroke:#000000;stroke-width:0px;font-family: Courier New;font-size:12px" x="202.0" y="192.24">
			<tspan fill="#000000" font-family="Courier;" font-size="12.0px" id="1343_line1" stroke="#000000" text-align="center" text-anchor="middle" x="223.197" y="216.24">
				C2
			</tspan>
		</text>
		<rect height="36.0" id="1344" rx="10.0026796097" ry="18.0" style="stroke:#616161;stroke-width:3.000000px;fill:#d3f5d6" width="42.394" x="132.606" y="191.74"/>
		<text id="1344_text" style="fill:#000000;stroke:#000000;stroke-width:0px;font-family: Courier New;font-size:12px" x="132.606" y="191.74">
			<tspan fill="#000000" font-family="Courier;" font-size="12.0px" id="1344_line1" stroke="#000000" text-align="center" text-anchor="middle" x="153.803" y="215.74">
				C1
			</tspan>
		</text>
		<rect height="36.0" id="1345" rx="10.0026796097" ry="18.0" style="stroke:#616161;stroke-width:3.000000px;fill:#d3f5d6" width="42.394" x="340.0" y="253.48"/>
		<text id="1345_text" style="fill:#000000;stroke:#000000;stroke-width:0px;font-family: Courier New;font-size:12px" x="340.0" y="253.48">
			<tspan fill="#000000" font-family="Courier;" font-size="12.0px" id="1345_line1" stroke="#000000" text-align="center" text-anchor="middle" x="361.197" y="277.48">
				C4
			</tspan>
		</text>
		<path d="M 338.5,271.48 L 315.288,271.48" id="1346" style="marker-start:none;stroke:#000000;marker-end:url(#Arrow1Lend);fill:none"/>
		<path d="M 273.574,254.698 L 242.214,227.022" id="1347" style="marker-start:none;stroke:#000000;marker-end:url(#Arrow1Lend);fill:none"/>
		<path d="M 200.5,210.076 L 176.5,209.904" id="1348" style="marker-start:none;stroke:#000000;marker-end:url(#Arrow1Lend);fill:none"/>
		<path d="M 131.106,209.74 L 97.0,209.74" id="1349" style="marker-start:none;stroke:#000000;marker-end:url(#Arrow1Lend);stroke-dasharray:3 3;fill:none"/>
		<rect height="36.0" id="1350" style="stroke:#616161;stroke-width:2.000000px;fill:#eeeeee" width="70.0222" x="326.974" y="309.96"/>
		<text id="1350_text" style="fill:#cccccc;stroke:#cccccc;stroke-width:0px;font-family: Luxi Sans;font-size:10px" x="326.974" y="309.96">
			<tspan fill="#777777" font-family="LucidaGrande;" font-size="10.0px" id="1350_line1" stroke="#777777" text-align="center" text-anchor="middle" x="361.9851" y="332.96">
				ruby_client
			</tspan>
		</text>
		<path d="M 361.72,308.96 L 361.469,290.98" id="1351" style="marker-start:none;stroke:#000000;marker-end:url(#Arrow1Lend);fill:none"/>
		<rect height="36.0" id="1352" style="stroke:#616161;stroke-width:2.000000px;fill:#eeeeee" width="56.2081" x="264.487" y="131.0"/>
		<text id="1352_text" style="fill:#cccccc;stroke:#cccccc;stroke-width:0px;font-family: Luxi Sans;font-size:10px" x="264.487" y="131.0">
			<tspan fill="#777777" font-family="LucidaGrande;" font-size="10.0px" id="1352_line1" stroke="#777777" text-align="center" text-anchor="middle" x="292.59105" y="154.0">
				master
			</tspan>
		</text>
		<path d="M 292.591,168.0 L 292.591,190.74" id="1353" style="marker-start:none;stroke:#000000;marker-end:url(#Arrow1Lend);fill:none"/>
		<rect height="36.0" id="1354" rx="10.0026796097" ry="18.0" style="stroke:#616161;stroke-width:3.000000px;fill:#d3f5d6" width="42.394" x="271.394" y="192.24"/>
		<text id="1354_text" style="fill:#000000;stroke:#000000;stroke-width:0px;font-family: Courier New;font-size:12px" x="271.394" y="192.24">
			<tspan fill="#000000" font-family="Courier;" font-size="12.0px" id="1354_line1" stroke="#000000" text-align="center" text-anchor="middle" x="292.591" y="216.24">
				C7
			</tspan>
		</text>
		<path d="M 269.894,210.24 L 245.894,210.24" id="1355" style="marker-start:none;stroke:#000000;marker-end:url(#Arrow1Lend);fill:none"/>
		<rect height="36.0" id="1368" rx="10.0026796097" ry="18.0" style="stroke:#616161;stroke-width:3.000000px;fill:#d3f5d6" width="42.394" x="271.394" y="371.0"/>
		<text id="1368_text" style="fill:#000000;stroke:#000000;stroke-width:0px;font-family: Courier New;font-size:12px" x="271.394" y="371.0">
			<tspan fill="#000000" font-family="Courier;" font-size="12.0px" id="1368_line1" stroke="#000000" text-align="center" text-anchor="middle" x="292.591" y="395.0">
				C5
			</tspan>
		</text>
		<rect height="36.0" id="1366" rx="10.0026796097" ry="18.0" style="stroke:#616161;stroke-width:3.000000px;fill:#d3f5d6" width="42.394" x="340.0" y="371.0"/>
		<text id="1366_text" style="fill:#000000;stroke:#000000;stroke-width:0px;font-family: Courier New;font-size:12px" x="340.0" y="371.0">
			<tspan fill="#000000" font-family="Courier;" font-size="12.0px" id="1366_line1" stroke="#000000" text-align="center" text-anchor="middle" x="361.197" y="395.0">
				C6
			</tspan>
		</text>
		<path d="M 338.5,389.0 L 315.288,389.0" id="1370" style="marker-start:none;stroke:#000000;marker-end:url(#Arrow1Lend);fill:none"/>
		<rect height="36.0" id="1365" style="stroke:#616161;stroke-width:2.000000px;fill:#eeeeee" width="70.0222" x="326.186" y="427.28"/>
		<text id="1365_text" style="fill:#cccccc;stroke:#cccccc;stroke-width:0px;font-family: Luxi Sans;font-size:10px" x="326.186" y="427.28">
			<tspan fill="#777777" font-family="LucidaGrande;" font-size="10.0px" id="1365_line1" stroke="#777777" text-align="center" text-anchor="middle" x="361.1971" y="450.28">
				php_client
			</tspan>
		</text>
		<path d="M 361.197,426.28 L 361.197,408.5" id="1367" style="marker-start:none;stroke:#000000;marker-end:url(#Arrow1Lend);fill:none"/>
		<path d="M 275.924,370.029 L 239.0,328.0  L 225.812,229.727" id="1369" style="marker-start:none;stroke:#000000;marker-end:url(#Arrow1Lend);fill:none"/>
	</g>
</svg>

<svg xmlns:rdf="http://www.w3.org/1999/02/22-rdf-syntax-ns#" xmlns="http://www.w3.org/2000/svg" height="334.28" width="301.5" version="1.1" xmlns:cc="http://creativecommons.org/ns#" xmlns:dc="http://purl.org/dc/elements/1.1/">
 <metadata>
  <rdf:RDF>
   <cc:Work rdf:about="">
    <dc:format>image/svg+xml</dc:format>
    <dc:type rdf:resource="http://purl.org/dc/dcmitype/StillImage"/>
    <dc:title/>
   </cc:Work>
  </rdf:RDF>
 </metadata>
 <defs>
  <marker id="Arrow1Lend" refY="0" refX="0" orient="auto">
   <path style="marker-start:none;" d="m-10,0,0-2,10,2-10,2z" fill-rule="evenodd" stroke="#000" stroke-width="1px"/>
  </marker>
 </defs>
 <g transform="translate(-96.5,-130)">
  <rect rx="10.003" ry="18" height="36" width="42.394" stroke="#616161" y="253.48" x="271.39" stroke-width="3px" fill="#d3f5d6"/>
  <text font-family="Courier New" font-size="12px" stroke="#000000" y="253.48" x="271.39401" stroke-width="0px" fill="#000000">
   <tspan font-size="12px" fill="#000000" style="text-anchor:middle;text-align:center;" stroke="#000000" y="277.48001" x="292.591" font-family="&apos;Courier" text-align="center">C3</tspan>
  </text>
  <rect rx="10.003" ry="18" height="36" width="42.394" stroke="#616161" y="192.24" x="202" stroke-width="3px" fill="#d3f5d6"/>
  <text font-family="Courier New" font-size="12px" stroke="#000000" y="192.24001" x="202" stroke-width="0px" fill="#000000">
   <tspan font-size="12px" fill="#000000" style="text-anchor:middle;text-align:center;" stroke="#000000" y="216.24001" x="223.19701" font-family="&apos;Courier" text-align="center">C2</tspan>
  </text>
  <rect rx="10.003" ry="18" height="36" width="42.394" stroke="#616161" y="191.74" x="132.61" stroke-width="3px" fill="#d3f5d6"/>
  <text font-family="Courier New" font-size="12px" stroke="#000000" y="191.74001" x="132.606" stroke-width="0px" fill="#000000">
   <tspan font-size="12px" fill="#000000" style="text-anchor:middle;text-align:center;" stroke="#000000" y="215.74001" x="153.80299" font-family="&apos;Courier" text-align="center">C1</tspan>
  </text>
  <rect rx="10.003" ry="18" height="36" width="42.394" stroke="#616161" y="253.48" x="340" stroke-width="3px" fill="#d3f5d6"/>
  <text font-family="Courier New" font-size="12px" stroke="#000000" y="253.48" x="340" stroke-width="0px" fill="#000000">
   <tspan font-size="12px" fill="#000000" style="text-anchor:middle;text-align:center;" stroke="#000000" y="277.48001" x="361.19699" font-family="&apos;Courier" text-align="center">C4</tspan>
  </text>
  <path style="marker-start:none;marker-end:url(#Arrow1Lend);" fill="none" d="m338.5,271.48-23.212,0" stroke="#000"/>
  <path style="marker-start:none;marker-end:url(#Arrow1Lend);" fill="none" d="m273.57,254.7-31.36-27.676" stroke="#000"/>
  <path style="marker-start:none;marker-end:url(#Arrow1Lend);" fill="none" d="m200.5,210.08-24-0.172" stroke="#000"/>
  <path style="marker-end:url(#Arrow1Lend);marker-start:none;" d="M131.11,209.74,97,209.74" stroke="#000" stroke-dasharray="3, 3" fill="none"/>
  <rect height="36" width="70.022" stroke="#616161" y="309.96" x="326.97" stroke-width="2px" fill="#EEE"/>
  <text font-family="Luxi Sans" font-size="10px" stroke="#cccccc" y="309.95999" x="326.974" stroke-width="0px" fill="#cccccc">
   <tspan font-size="10px" fill="#777777" style="text-anchor:middle;text-align:center;" stroke="#777777" y="332.95999" x="361.98511" font-family="&apos;LucidaGrande" text-align="center">ruby_client</tspan>
  </text>
  <path style="marker-start:none;marker-end:url(#Arrow1Lend);" fill="none" d="m361.72,308.96-0.251-17.98" stroke="#000"/>
  <rect height="36" width="56.208" stroke="#616161" y="131" x="264.49" stroke-width="2px" fill="#EEE"/>
  <text font-family="Luxi Sans" font-size="10px" stroke="#cccccc" y="131" x="264.487" stroke-width="0px" fill="#cccccc">
   <tspan font-size="10px" fill="#777777" style="text-anchor:middle;text-align:center;" stroke="#777777" y="154" x="292.59106" font-family="&apos;LucidaGrande" text-align="center">master</tspan>
  </text>
  <path style="marker-start:none;marker-end:url(#Arrow1Lend);" fill="none" d="m292.59,168,0,22.74" stroke="#000"/>
  <rect rx="10.003" ry="18" height="36" width="42.394" stroke="#616161" y="192.24" x="271.39" stroke-width="3px" fill="#d3f5d6"/>
  <text font-family="Courier New" font-size="12px" stroke="#000000" y="192.24001" x="271.39401" stroke-width="0px" fill="#000000">
   <tspan font-size="12px" fill="#000000" style="text-anchor:middle;text-align:center;" stroke="#000000" y="216.24001" x="292.591" font-family="&apos;Courier" text-align="center">C7</tspan>
  </text>
  <path style="marker-start:none;marker-end:url(#Arrow1Lend);" fill="none" d="m269.89,210.24-24,0" stroke="#000"/>
  <rect rx="10.003" ry="18" height="36" width="42.394" stroke="#616161" y="371" x="271.39" stroke-width="3px" fill="#d3f5d6"/>
  <text font-family="Courier New" font-size="12px" stroke="#000000" y="371" x="271.39401" stroke-width="0px" fill="#000000">
   <tspan font-size="12px" fill="#000000" style="text-anchor:middle;text-align:center;" stroke="#000000" y="395" x="292.591" font-family="&apos;Courier" text-align="center">C5</tspan>
  </text>
  <rect rx="10.003" ry="18" height="36" width="42.394" stroke="#616161" y="371" x="340" stroke-width="3px" fill="#d3f5d6"/>
  <text font-family="Courier New" font-size="12px" stroke="#000000" y="371" x="340" stroke-width="0px" fill="#000000">
   <tspan font-size="12px" fill="#000000" style="text-anchor:middle;text-align:center;" stroke="#000000" y="395" x="361.19699" font-family="&apos;Courier" text-align="center">C6</tspan>
  </text>
  <path style="marker-start:none;marker-end:url(#Arrow1Lend);" fill="none" d="m338.5,389-23.212,0" stroke="#000"/>
  <rect height="36" width="70.022" stroke="#616161" y="427.28" x="326.19" stroke-width="2px" fill="#EEE"/>
  <text font-family="Luxi Sans" font-size="10px" stroke="#cccccc" y="427.28" x="326.186" stroke-width="0px" fill="#cccccc">
   <tspan font-size="10px" fill="#777777" style="text-anchor:middle;text-align:center;" stroke="#777777" y="450.28" x="361.19711" font-family="&apos;LucidaGrande" text-align="center">php_client</tspan>
  </text>
  <path style="marker-start:none;marker-end:url(#Arrow1Lend);" fill="none" d="m361.2,426.28,0-17.78" stroke="#000"/>
  <path style="marker-start:none;marker-end:url(#Arrow1Lend);" fill="none" d="M275.92,370.03,239,328,225.81,229.73" stroke="#000"/>
 </g>
</svg>
